img/card-plus.svg

<svg width="21" height="20" fill="none" xmlns="http://www.w3.org/2000/svg"><path d="M15.5 10.375h-4.375V6h-1.25v4.375H5.5v1.25h4.375V16h1.25v-4.375H15.5v-1.25Z" fill="#6E84A3"/></svg>

<svg width="21" height="20" viewBox="0 0 21 20" fill="none" xmlns="http://www.w3.org/2000/svg">
<path d="M15.5 10.375H11.125V6H9.875V10.375H5.5V11.625H9.875V16H11.125V11.625H15.5V10.375Z" fill="#6E84A3"/>
</svg>
